X:1
T:The School Of Velocity
T:Op. 299, No. 7
T:Carl Czerny (1791-1857)
%%score { ( 1 3 ) | ( 2 4 ) }
L:1/8
Q:1/4=80
M:4/4
K:C
V:1 treble nm="Piano"
V:3 treble 
V:2 treble 
V:4 treble 
V:1
"C""^7""^Updated Sep 15, 2014" z2 [ee'] z [ee'] z [ee'] z |"G" ((((!1,!!2![gg']4 [dd'])))) z z2 | %2
"Am" z2 [cc'] z [cc'] z [cc'] z |"Am" ((((((!1,2![ee']4 [Bb])))))) z z2 | %4
"F" z2 [Aa] z [Aa] z [Aa] z |"C/E" (((!5,3![Gg]4 !5![cc']))) z (!4![cc']2 | %6
"G/D" [dgb]) z (!2!!4![dgb]2"C" !3!!5![ec'e']) z ([ec'e']2 |"G" !2!!4![dbd']2) z2 z4 || %8
"C" z2 ([ee'] z [ee'] z [ee']) z |"C/G" ((([gg']4 [dd']))) z z2 |"Am" z2 [cc'] z [cc'] z [cc'] z | %11
"E" (((!1,2![ee']4 [Bb]))) z z2 | z2 [Aa] z [Aa] z [Aa] z | %13
!8va(! !4!!5![af'a']6 !3!!5![e'g']!2!!4![d'f'] | !1!!3![c'e'] z [e'g'] z !1!!2![gb] z [bd'] z | %15
 c'!8va)! z z2 z4 ||"G/B" z2 (d2 g2 !3!d'2 |"D7/A" d8) |"D7/F#" z2 (!3!=c'2 e'2 d'2) | %19
"G" (!3!!5![bd']4 [gb]4) |"G/B" z2 (d2 g2 d'2 | d8) |"D7" z2 (!4![Ad^f]2 [Adf]2 [Adf]2) | %23
"G" ([Gg]4 ([Bd]2) [Bd]2) |"D7/F#" !1!A4 A4 |"G" ([Gg]4 ([Bd]2) [Bd]2) |"D7/F#" A4 A4 | %27
 [Bd]4 [GB]2 z2 |"G/D" !3!!5![dgb]3 b !3!!5![gbd']3 d' | %29
"G7" [gbd'f'-]4 f'/!5!f'/!4!e'/!3!d'/ !2!c'/!1!b/!4!a/!3!g/ | %30
 !2!f/!1!e/!4!d/!3!c/ !2!B/!1!A/!4!G/!3!F/ !2!E/!1!D/!4!C/!3!B,/ !2!A,/!1!G,/!2!A,/!3!B,/ | %31
"C" x2 (!5!g4 dc |"G7/D" !2!B) z (f4 ed) |"C/E" (!2!c2 g2)"F" x4 |"C/G" (!4!c4"G" e3 d) | %35
"C" c z!8va(! e'4 d'c' |"G7/D" b z (f'4 e'd') |"Edim" (!2!^c'2 _b'2)"Dm/F" (a'2 f'2) | %38
"C/G" (!4!e'2 g'2)!8va)!"G" (!2!g2 !4!=b2) |"C" c'3 !3!g"G7" !3!g2 g2 |"C" c'3 g"G7" g2 (!5!g2 | %41
"C" e) z"G7" (!5!g2"C""G7" x4) |"C" x z"G7" (g2"C" [ce]2)"G7" ([dg]2 | %43
"C" [ce]2) z2[I:staff +1] [G,CE]4 |"C" [E,G,C]4[I:staff -1] z4 |] %45
V:2
 !5!C/!3!E/!2!^F/!1!G/ !5!C/!3!E/!2!F/!1!G/ C/E/F/G/ C/E/F/G/ | %1
 !5!B,/!4!D/!2!^F/!1!G/ !5!B,/!4!D/!2!F/!1!G/ B,/D/F/G/ B,/D/F/G/ | %2
[K:bass] !5!A,/!3!C/!2!^D/!1!E/ !5!A,/!3!C/!2!D/!1!E/ A,/C/D/E/ A,/C/D/E/ | %3
 !5!G,/!4!B,/!2!^D/!1!E/ !5!G,/!4!B,/!2!D/!1!E/ G,/B,/D/E/ G,/B,/D/E/ | %4
 !5!F,/!3!A,/!2!B,/!1!C/ !5!F,/!3!A,/!2!B,/!1!C/ F,/A,/B,/C/ F,/A,/B,/C/ | %5
 !5!E,/!4!G,/!2!B,/!1!C/ !5!E,/!4!G,/!2!B,/!1!C/ E,/G,/B,/C/ E,/G,/B,/C/ | %6
 !5!D,/!3!F,/!2!G,/!1!B,/ !5!D,/!3!F,/!2!G,/!1!B,/ !5!C,/!4!E,/!2!G,/!1!C/ !5!C,/!4!E,/!2!G,/!1!C/ | %7
 !5!G,/!4!B,/!2!D/!1!G/ !2!F/!1!G/!2!F/!3!E/ !1!D/!2!C/!3!B,/!4!A,/ !1!G,/!2!F,/!3!E,/!4!D,/ || %8
 !5!C,/!3!E,/!2!^F,/!1!G,/ !5!C,/!3!E,/!2!F,/!1!G,/ C,/E,/F,/G,/ C,/E,/F,/G,/ | %9
 !5!B,,/!4!D,/!2!^F,/!1!G,/ !5!B,,/!4!D,/!2!F,/!1!G,/ B,,/D,/F,/G,/ B,,/D,/F,/G,/ | %10
 !5!A,,/!3!C,/!2!^D,/!1!E,/ !5!A,,/!3!C,/!2!D,/!1!E,/ A,,/C,/D,/E,/ A,,/C,/D,/E,/ | %11
 !5!E,,/!3!^G,,/!2!B,,/!1!E,/ !5!E,,/!3!G,,/!2!B,,/!1!E,/ E,,/G,,/B,,/E,/ E,,/G,,/B,,/E,/ | %12
 !5!F,,/!3!A,,/!2!B,,/!1!C,/ !5!F,,/!3!A,,/!2!B,,/!1!C,/ !5!E,,/!3!=G,,/!2!A,,/!1!^C,/ !5!E,,/!3!G,,/!2!A,,/!1!C,/ | %13
 !5!D,,/!4!F,,/!2!A,,/!1!D,/ !5!D,,/!4!F,,/!2!A,,/!1!D,/ !5!F,,/!3!A,,/!2!^C,/!1!D,/ !5!F,,/!3!A,,/!2!C,/!1!D,/ | %14
 !5!G,,/!3!=C,/!2!E,/!1!G,/ !5!G,,/!3!C,/!2!E,/!1!G,/ !5!G,,/!3!D,/!2!F,/!1!G,/ !5!G,,/!3!D,/!2!F,/!1!G,/ | %15
 !5!C,/!4!E,/!2!G,/!1!C/ !5!E,/!4!G,/!2!C/!1!E/[K:treble] !5!G,/!3!C/!2!E/!1!G/ !5!C/!4!E/!2!G/!1!c/ || %16
 !5!B/!4!d/!2!^f/!1!g/ !5!B/!4!d/!2!f/!1!g/ B/d/f/g/ B/d/f/g/ | %17
 !5!A/!3!c/!2!d/!1!^f/ !5!A/!3!c/!2!d/!1!f/ A/c/d/f/ A/c/d/f/ | %18
 !5!^F/!4!A/!2!^c/!1!d/ !5!F/!4!A/!2!c/!1!d/ F/A/c/d/ F/A/c/d/ | %19
 !5!G/!3!B/!2!^c/!1!d/ !5!G/!3!B/!2!c/!1!d/ G/B/c/d/ G/B/c/d/ | %20
 !5!B,/!4!D/!2!^F/!1!G/ !5!B,/!4!D/!2!F/!1!G/ B,/D/F/G/ B,/D/F/G/ | %21
 !5!A,/!3!C/!2!D/!1!^F/ !5!A,/!3!C/!2!D/!1!F/ A,/C/D/F/ A,/C/D/F/ | %22
[K:bass] !5!D,/!3!A,/!2!C/!1!D/ !2!C/!1!D/!2!C/!3!A,/ !5!D,/!3!A,/!2!C/!1!D/ !2!C/!1!D/!2!C/!3!A,/ | %23
 !5!G,4 G,4 | ^F,4 F,4 | !5!G,4 G,4 | ^F,4 F,4 | !5!G,4 F,4 | !5!D,4 !5!B,,4 | !5!G,,4 x4 | z8 | %31
 !5!C,,/!4!E,,/!2!G,,/!1!C,/ !5!C,,/!4!E,,/!2!G,,/!1!C,/ C,,/E,,/G,,/C,/ C,,/E,,/G,,/C,/ | %32
 !5!D,,/!3!F,,/!2!G,,/!1!B,,/ !5!D,,/!3!F,,/!2!G,,/!1!B,,/ D,,/F,,/G,,/B,,/ D,,/F,,/G,,/B,,/ | %33
 !5!E,,/!4!G,,/!2!C,/!1!E,/ !5!E,,/!4!G,,/!2!C,/!1!E,/ !5!F,,/!4!A,,/!2!C,/!1!D,/ !5!F,,/!4!A,,/!2!C,/!1!D,/ | %34
 !5!G,,/!3!C,/!2!E,/!1!G,/ !5!G,,/!3!C,/!2!E,/!1!G,/ !5!G,,/!4!B,,/!2!D,/!1!G,/ !5!G,,/!4!B,,/!2!D,/!1!G,/ | %35
 !5!C,/!4!E,/!2!G,/!1!C/ !5!C,/!4!E,/!2!G,/!1!C/ C,/E,/G,/C/ C,/E,/G,/C/ | %36
 !5!D,/!3!F,/!2!G,/!1!B,/ !5!D,/!3!F,/!2!G,/!1!B,/ D,/F,/G,/B,/ D,/F,/G,/B,/ | %37
 !5!E,/!3!G,/!2!_B,/!1!^C/ !5!E,/!3!G,/!2!B,/!1!C/ !5!F,/!4!A,/!2!C/!1!D/ !5!F,/!4!A,/!2!C/!1!D/ | %38
[K:treble] !5!G,/!3!=C/!2!E/!1!G/ !5!G,/!3!C/!2!E/!1!G/ !5!G,/!4!=B,/!2!D/!1!F/ !5!G,/!4!B,/!2!D/!1!F/ | %39
 !3!C/!1!G/!2!E/!1!G/ !3!C/!1!G/!2!E/!1!G/ !4!B,/!1!G/!2!D/!1!G/ !5!G,/!1!G/!4!B,/!1!G/ | %40
 !3!C/!1!G/!2!E/!1!G/ !3!C/!1!G/!2!E/!1!G/ !4!B,/!1!G/!2!D/!1!G/ !5!G,/!1!G/!4!B,/!1!G/ | %41
 !3!C/!1!G/!2!E/!1!G/ !5!B,/!1!G/!2!F/!1!G/ !4!C/!1!G/!2!E/!1!G/ !5!B,/!1!G/!2!F/!1!G/ | %42
 !4!C/!1!G/!2!E/!1!G/ !5!B,/!1!G/!2!F/!1!G/ !4!C/!1!G/!2!E/!1!G/ !5!B,/!1!G/!2!F/!1!G/ | %43
 !4!!2![CE]2 z2[K:bass] [C,,C,]4 | [C,,C,]4 z4 |] %45
V:3
 x8 | x8 | x8 | x8 | x8 | x8 | x8 | x8 || x8 | x8 | x8 | x8 | x8 |!8va(! x8 | x8 | x!8va)! x7 || %16
 z2 d6 | !5!d'3 c' c'4 | z2 !1!a6 | x8 | z2 d6 |"D7/A" d'3 c' c'4 | x8 | x8 | (!3!d3 e d4) | x8 | %26
 (!3!d3 e d4) |"G" (!4!g3 a g2) z !4!g | x8 | x8 | x8 | !4!C z !1!E6 | !1!F z F6 | %33
 !1!G4 (!4![Aa]2 !5![cc']2) | [EG]4 F4 | E z!8va(! e6 | f z [fx]6 | !1!g4 [ad']4 | %38
 [g=c']4!8va)! !1!d4 | [ce]4 [df]4 | [ce]4 [df]4 | c z !2!d2 !1!!3![ce] z ([dg]2 | [ce]) z d2 x4 | %43
 x8 | x8 |] %45
V:4
 x8 | x8 |[K:bass] x8 | x8 | x8 | x8 | x8 | x8 || x8 | x8 | x8 | x8 | x8 | x8 | x8 | %15
 x4[K:treble] x4 || x8 | x8 | x8 | x8 | x8 | x8 |[K:bass] x8 | %23
 G,/!4!B,/!2!D/!1!E/ !2!D/!1!E/!2!D/!4!B,/ !5!G,/!4!B,/!2!D/!1!E/ !2!D/!1!E/!2!D/!4!B,/ | %24
 !5!^F,/!3!C/!2!D/!1!E/ !2!D/!1!E/!2!D/!3!C/ !5!F,/!3!C/!2!D/!1!E/ !2!D/!1!E/!2!D/!3!C/ | %25
 G,/!4!B,/!2!D/!1!E/ !2!D/!1!E/!2!D/!4!B,/ !5!G,/!4!B,/!2!D/!1!E/ !2!D/!1!E/!2!D/!4!B,/ | %26
 !5!^F,/!3!C/!2!D/!1!E/ !2!D/!1!E/!2!D/!3!C/ !5!F,/!3!C/!2!D/!1!E/ !2!D/!1!E/!2!D/!3!C/ | %27
 G,/!4!B,/!2!D/!1!E/ !2!D/!1!E/!2!D/!3!B,/ !5!F,/!4!G,/!2!B,/!1!D/ !2!B,/!1!D/!2!B,/!4!G,/ | %28
 D,/!3!F,/!2!G,/!1!B,/ !2!G,/!1!B,/!2!G,/!3!F,/ B,,/!4!D,/!2!F,/!1!G,/ !2!F,/!1!G,/!2!F,/!3!D,/ | %29
 G,,/!4!B,,/!2!D,/!1!G,/ !2!D,/!1!G,/!2!D,/!4!B,,/ !5!G,, z z2 | x8 | x8 | x8 | x8 | x8 | x8 | x8 | %37
 x8 |[K:treble] x8 | x8 | x8 | C2 B,2 C2 B,2 | C2 B,2 C2 B,2 | x4[K:bass] x4 | x8 |] %45

